X:2010
T:the Glasgow Gaelic Club
M:6/8
O:Scotland
R:Pipe march
Z:Richard Robinson 
%%TUNEURL: http://www.leeds.ac.uk/music/Info/RRTuneBk/gettune/00000987.html
%%ID:00000987
K:B min
B |\
d>cB B>AF | B2B B2d | c>BA e2A | e2a c>BA |\
d>cB B>AF | B2B c2e |
f<af e>dc | d>BB B2 :: \
c |\
d>fa d>fa | d>fa f>ed |
c<eA d<fA | c<ea c>BA |\
d>cB B>AF | B2B d2e | f<af e>dc | dBB B2 :|
